X:1
T:Title
%%score { ( 1 4 ) | ( 2 3 ) }
L:1/8
M:6/8
K:F
V:1 treble nm="Grand Piano"
V:4 treble 
V:2 bass 
V:3 bass 
V:1
 z3 z2[Q:1/4=90] F/G/ | A2 A [EG][_EF][=EG] | A3 c2 d | ccA FGA | [EG]3- [EG]2 z/ G/ | %5
 AAA [EG][_EF][=EG] |[M:5/8] [FA]3 [Fc]2 |[M:1/8] [Fd] |[M:3/4] [Fc]2 [CFA][A,F] [CFA][B,EG] | %9
[M:5/8] [A,F]-[A,F]- [A,F]3 |[M:1/8] [Fc] |[M:3/4] [Fd]2 [Fd][Fd] [Fe][Fd] | c6 | %13
 [EB]2 [EB][EB] [Ec][EB] | [FA]6 | [CFA]2 [CGB][_EAc] [EAc][EAc] |[M:7/8] d2- [Fd] f3 [Fd] | %17
[M:3/4] [Fc]2 [CFA][A,F] [CFA][B,EG] |[M:5/8] [A,F]-[A,F]- [A,F]3 |] %19
V:2
 z3 z2 [F,A,]/[F,B,F]/ | [F,CF]2 [F,CF] [C,C][C,C][C,C] | [F,CF]3 [F,A,F]2 [F,B,F] | %3
 FF[K:bass][F,CF] [F,A,][F,B,F][F,CF] | z3 z2 .A, | [F,CF][F,CF][F,CF] [C,C][C,C][C,C] | %6
[M:5/8] [F,C]3 [F,A,]2 |[M:1/8] [B,,B,] |[M:3/4] [C,A,]2 C,C, C,C, |[M:5/8] F,-F,- F,3 | %10
[M:1/8] [F,A,] |[M:3/4] [B,,B,]2 [B,,B,][B,,B,] [B,,C][B,,B,] | .[F,A,F]2 C F,2 [F,F] | %13
 [C,G,]2 [C,G,][C,G,] [B,,A,][C,G,] | [F,C]F, F, F,2 F, | F,2 F,F, F,F, | %16
[M:7/8] z2 B, [B,,DF]3 [B,,B,] |[M:3/4] [C,A,]2 C,C, C,C, |[M:5/8] F,-F,- F,3 |] %19
V:3
 x6 | x6 | x6 | .[F,A,]3[K:bass] z3 | [C,C]3- [C,C]2 F,/-[F,B,]/ | x6 |[M:5/8] x5 |[M:1/8] x | %8
[M:3/4] x6 |[M:5/8] x5 |[M:1/8] x |[M:3/4] x6 | z A,- A,3 z | x6 | x6 | x6 |[M:7/8] B,,3 z z z2 | %17
[M:3/4] x6 |[M:5/8] x5 |] %19
V:4
 x6 | x6 | x6 | x6 | z3 z2 F | x6 |[M:5/8] x5 |[M:1/8] x |[M:3/4] x6 |[M:5/8] x5 |[M:1/8] x | %11
[M:3/4] x6 | z F F F2 A | x6 | z C C C2 [CFA] | x6 |[M:7/8] [DB]2 z z z z2 |[M:3/4] x6 | %18
[M:5/8] x5 |] %19

